img/taran_xx.svg

<svg viewBox="0 0 1088 1088" xmlns="http://www.w3.org/2000/svg"><g stroke-width="1.333333" transform="translate(1.301435 2.602871)"><path d="m0 544v-544h544 544v544 544h-544-544z" fill="#d38aab"/><path d="m208.16335 610.74627c35.19783-48.01434 7.6235-140.817 80.57544-158.0725 71.20691-18.41538 140.75522 22.37529 211.77493 15.36242 42.95493-20.40115 77.77494-87.99479 71.30779-128.10052-47.88385-27.18581-30.7286-96.35494-12.16298-139.47104 34.58771-39.9875-56.17621-33.27335-17.34037-77.94992 3.40681-37.500856 8.89047-110.554144 40.74726-122.99830787 168.3096 1.13038733 336.62324.16015037 504.93458.48359787v1088h-544c122.54766-358.44907-384.17703-332.79279-342.14465-468.88204l6.308-8.37167zm639.83665 372.4734c52.8287-32.63143-112.97682-21.37161-44.54447 1.85994 14.87784.28046 29.68418-1.53088 44.54447-1.85994zm88.45539-47.87051c33.88969 14.29516 75.12501-37.18102 16.6033-21.937-12.30476 1.77586-59.40194 26.81798-16.6033 21.937zm-47.42515-334.40101c68.31523-16.58946 19.85577-95.06866 30.0133-141.72477 25.9535-38.71886-20.1631-117.88891-46.14891-119.2868-19.26093 48.60025-43.20108 128.40336-112.33709 100.0904-41.02214-22.14887-54.54547 18.33249-15.96596 37.41849 25.23842 43.37312 92.43369 76.37294 114.03755 25.27015-15.25502 32.40152-33.7966 116.58339 30.40111 98.23253zm-327.02842-59.44489c24.02743-67.67509-108.32116-23.51842-143.83016-34.77072-81.49438 71.84502 98.81077 88.74232 143.83016 34.77072zm-20.22558-42.91077c-25.03373-28.17479-78.70799-14.25387-108.14598-16.34721-11.20526 33.5291 95.25903 16.76682 108.14598 16.34721zm136.55483-65.24317c52.50683-28.06783-33.77223-35.23469-10.65287 2.68521 3.89856.17291 7.32628-.6362 10.65287-2.68521zm70.67052-42.59503c15.12868-46.78456-92.16926-36.45396-35.02443-1.81957 8.30248 10.2299 30.70077 22.5832 35.02443 1.81957zm90.99754-34.75308c76.09677-6.05259-33.40727-95.86787-.003-16.98188-.32912 5.72554-5.41579 12.0556.003 16.98188zm-839.99913-356.00121h378.71747c-32.09121 71.931495-14.82218 170.02488-87.31389 220.08729-89.69362 63.02857-227.455941 15.50716-264.772855-86.33574-19.1782855-41.720266-27.20900627-88.005405-26.630725-133.75155zm436.005 167.66667c45.97065-39.73144-17.58617-108.906191-42.63101-75.300084-12.36926-48.894714 44.60505-2.521564 69.38507-26.799118 30.64763-19.890779 51.50386 31.485552 11.9106 10.665842-51.16999 12.918232 44.75867 109.02907-38.66466 91.43336z" fill="#94b56e"/><path d="m0 680.64127v-407.35874c198.14493 107.94373-54.25786 701.617 12.904306 807.28007 305.414224-87.64093 798.814014 48.1729 1054.852894-76.1989 4.6834-90.36755-55.0226-177.70906-33.0989-274.68082-28.7681-57.43889 38.9382-221.69772 55.7765-88.95304-8.6658 148.50044 1.1599 298.12936-2.4349 447.27016h-1087.9999zm477.33333-69.97839c-52.64922-1.99476-179.08203 10.92626-166.08314-35.68471 45.48245 58.67003 279.22933 9.02495 115.48557 8.11804-126.00243-41.80427 142.20543 33.18145 129.42293-73.42827-44.74293-14.23805-103.22935 11.47339-151.88839-6.10238 43.87607 2.68449 187.62177-20.34489 72.74398-25.35741-47.1609-9.34306 136.22045-21.06115 132.24319-17.77722 54.18123-21.99114 79.23859-132.26921 134.05074-34.3355 38.87152 69.45587 151.82943-86.93652 77.39877 15.9529-40.71429 4.52477-149.87985-28.55456-72.95332 40.01895 41.14512 58.70049 154.43739 57.09433 117.96295 17.14883-33.98047 77.7789-84.28864 43.75494-112.39551-9.37626-78.7126-14.61714-138.50059-50.47784-185.17132 34.44647-46.26487 19.92183-28.84583 102.00399-90.81645 86.37656zm108.33148-117.62129c-18.7605-41.70077-50.90364 34.26916 0 0zm90.75618-58.54154c85.07453-64.42519-53.01056-20.13555 0 0zm65.7195-27.21669c.43272-41.47032 47.33607-4.28312 0 0zm103.19284-37.28336c-12.63849-57.0338 73.00794-16.85751 0 0zm-162.4-4.93333c-2.74554-41.09859 38.68689.91285 0 0zm349.35577-7.1476c-.7611-71.36179 28.9551-136.84726-64.48615-125.93982-5.25156-77.80083-38.91979-122.53739-119.68585-103.95885-99.48231-47.402262-187.21527 9.19477-278.30269 38.88937-67.0613-.89605-25.58756-173.2255474 29.43672-166.90977h488.74887v349.12145c-17.9707 4.99486-36.578 15.43038-55.7109 8.79762zm-149.26735-10.91691c8.2619-30.94624-92.32047-82.63585 9.46795-68.53665 40.58913 5.29956 19.35229 70.55745-9.46795 68.53665zm-52.00094-6.06799c10.03351-19.06294 10.16753 21.81486 0 0zm-587.96848-31.93417c.96103-82.99866-28.96812-232.464225-142.22102-164.41965-66.95423 6.94526-109.033836 167.50155-106.6486869 33.16026 15.4601777-68.2501-31.5729631-208.353398 87.5374569-177.74061h296.99739c-51.58605 55.939299 18.79181 212.93495-65.53788 204.83371-41.83635 17.75111-22.8468 94.64955-70.12726 104.16629z" fill="#e48b44"/><path d="m0 680.64127c0-135.78625 0-271.57249 0-407.35874 56.529045-19.91361 115.88353 9.48161 165.263 40.6811 13.45898 35.80951 24.42401 74.12969 41.92365 106.79717-27.84932 49.23839-31.33305 108.62089-63.41036 156.31358-25.69148 23.15456-55.428342 96.29057-7.07499 102.84098 25.69032-23.98244 85.59383-28.71775 119.75239 7.70758 40.48499 21.17625 85.80572 95.08083 132.37927 48.04256 50.73086-31.30345 112.5432-16.24499 168.16704-12.65363 12.84652 101.65367 14.18392 205.96693 36.58281 306.16303 10.877 56.8166 78.40002 65.0217 125.32587 55.1139 103.34549-13.8404 200.12241-67.4058 305.73552-63.9208 33.6184-8.9751 88.0469 62.8788 47.9692 67.632-357.53783 0-715.07561 0-1072.6134 0 0-135.78624 0-271.57249 0-407.35873zm107.21734 277.09714c16.7722-52.11349 67.60294-94.29263 74.42944-146.07765-51.16641-60.06282-75.28819 57.22987-99.686433 91.35046-21.132138 41.73666-47.81489 111.25638 4.840886 138.68938 20.936487-20.4473 16.610647-56.68437 20.416107-83.96219zm215.2199 32.11283c44.65875-6.57392-48.7876-15.50807-27.1329-51.40623-5.58821-46.70246 46.60865-95.66396 33.44166-133.76898-45.51117-14.30472-46.6721 9.353-46.55853 41.64433-6.77195 43.7122-64.99305 124.83805 3.16913 142.83775 12.24967 2.10294 24.74668 1.6102 37.08064.69313zm-79.38491-680.85124c-15.82862-66.16162 7.42397-136.5784.07737-204.41404-22.96698-41.032588-89.02676-33.395055-131.88952-41.868028-37.66358-10.743389-93.601752 23.470024-111.24018 28.568661 0-30.428864 0-60.857729 0-91.286593h378.71747c-16.21292 40.180685-19.12348 74.632135-28.38514 116.50253 17.0964 40.19068 13.61404 127.97624-47.81039 83.05106-7.93875 29.92594-19.02457 103.59406-59.46961 109.44641zm283.281-148.58577c17.56835-7.36731 15.93193-49.6277 21.7428-74.146309 4.49854-16.921359-31.45735-21.278812 7.70684-16.724268 20.09815 4.648572 52.07447 12.075077 58.93365-1.67739-5.0709 21.839864-6.85893 51.598477-15.4626 15.245422-31.33675-24.005357-53.01259 19.237195-32.87033 36.298945 16.90441-23.210767 4.14273 36.23283-4.13098 7.49303-21.66828 8.72625 1.14476 47.98774-35.91938 33.51057z" fill="#73255f"/><path d="m.04213499 882.33333.042135-205.66666c20.81208801 39.54739.93191111 89.94759 27.79621201 129.93029 5.372148 52.21546 62.74289 81.11319 25.304815 131.93163-11.328078 39.31232-56.6771472 136.64521 24.139202 110.61021 51.336681 2.1026 99.141041 8.2583 149.862741-6.3132 147.25932-15.6963 297.04321-13.2433 443.50182 8.9009 34.95462.1184 46.15641 25.4511 3.20138 24.8368-178.38909 17.5541-357.98532 9.6104-536.98314 11.4367h-136.9073zm954.70021501 136.16157c36.11865-.2 95.24345 28.232 117.27025-13.5441 19.5172-32.16423-11.1584-64.06287-17.2954-92.85624 14.3846-14.14145 43.1047-5.63805 33.2828 17.72405v158.18139c-85.368-1.7222-171.17471 4.2702-256.15043-4.9103-56.18722 1.2107-38.31402-50.1311 6.70019-51.1739 37.74511-10.4178 77.15341-13.676 116.19259-13.4209zm-289.69231-58.42181c-31.50598-56.2303-62.68746-116.38302-69.63968-181.35036 6.66925-2.58414 128.9773 149.28706 126.19049 196.86381-9.44501 33.08616-44.13131-2.57547-56.55081-15.51345zm154.98904-5.20353c42.52154-61.62561-13.82945-135.41473 4.11891-198.29934 38.58947-45.182-12.69824-152.43016 61.13593-157.66338 85.56842-3.79834 20.32953 77.55917 33.77366 124.2443 14.68193 61.03315 67.01794 106.92552 72.93242 171.34006-27.5264 40.38174-66.29767 8.23236-63.73909-31.26594-14.49641-36.87317-69.94309-111.95853-62.45562-25.69648-6.60428 41.30843 28.16407 104.66047-3.02842 131.21825-15.06375.52388-31.16732-3.97588-42.73779-13.87747zm-681.89307-178.86956c9.97748-42.76662 1.8113-153.3925 72.75696-104.33824 35.32516 30.63883 91.19443 20.58366 123.76888 28.28784 16.47642 35.98274 16.18312 77.67628 1.56737 114.12411-38.14826 11.78786-71.47441 1.37286-75.92698-38.98596-20.38453 46.8364-88.87671 60.27229-118.27225 12.62455l-2.49122-5.70973zm203.18732-290.30519c.69648-25.57977 34.85173-34.94859 9.1217-15.98713-.32824 6.58355-2.90421 20.61342-9.1217 15.98713zm328.66667-4.89672c-51.6197-3.33965-28.18882-58.71118 6.69083-44.62376 29.50157-21.25301 33.36441-50.93606-2.08666-34.87288-10.17854-17.42615 34.97343-37.18276 30.95628-7.09299 18.77165 16.28168 29.45669 32.14415 8.67119 41.33012-1.25101 17.98433 19.91921 39.70948-10.45272 47.12809-11.26645-.21505-22.67277.47763-33.77892-1.86858zm-300.09868-32.60725c-13.16957-14.07888 14.96567-47.66275-10.11311-36.89407 33.77202-31.74178-60.88466-67.7545-29.34364-18.61808-36.56666-7.30811-4.61967 71.13871-36.29185 43.28041-29.303-48.9908 16.23593-92.36392 65.24457-62.84529 23.51912 22.80062 13.33151 66.22442 9.82802 76.38428zm-43.56799-34.44328c-7.88162-21.70944 28.13556-1.12967 0 0zm415.8889-6.63645c2.87145-29.3515 40.75936-21.96418 7.55482.12328l-4.37452.73384-3.1803-.85718zm103.34661-37.11455c-36.46293-6.75229 38.00111-32.21024 23.76449-20.50285-.0486 7.13403-17.7284 26.86518-23.76449 20.50285zm-162.63551-4.92989c-1.22782-33.96189 37.9219-12.69073 0 0zm202.03635-17.87476c22.07969-22.19159.87554-30.40987-12.30001-23.17412 7.18801-45.76232-58.11656-7.54452-27.45667-44.62223 41.12838-27.18915 90.04482 22.46687 54.88055 58.93777-3.91016 5.85083-6.93036 12.77958-15.12387 8.85858z" fill="#2d3322"/></g></svg>

<?xml version="1.0" encoding="UTF-8" standalone="no"?>
<svg xmlns="http://www.w3.org/2000/svg" xmlns:sodipodi="http://sodipodi.sourceforge.net/DTD/sodipodi-0.dtd" xmlns:inkscape="http://www.inkscape.org/namespaces/inkscape" viewBox="0 0 1088 1088" sodipodi:docname="taran.svg" inkscape:version="0.92.4 (5da689c313, 2019-01-14)">
<g id="g1022" transform="translate(1.3014349,2.6028707)"> <path style="fill:#d38aab;stroke-width:1.33333337" d="M 0,544 V 0 h 544 544 v 544 544 H 544 0 Z" id="path1032" inkscape:connector-curvature="0" /> <path style="fill:#94b56e;stroke-width:1.33333337" d="m 208.16335,610.74627 c 35.19783,-48.01434 7.6235,-140.817 80.57544,-158.0725 71.20691,-18.41538 140.75522,22.37529 211.77493,15.36242 42.95493,-20.40115 77.77494,-87.99479 71.30779,-128.10052 -47.88385,-27.18581 -30.7286,-96.35494 -12.16298,-139.47104 34.58771,-39.9875 -56.17621,-33.27335 -17.34037,-77.94992 C 545.72497,85.013854 551.20863,11.960566 583.06542,-0.48359787 751.37502,0.64678946 919.68866,-0.3234475 1088,0 V 1088 H 544 C 666.54766,729.55093 159.82297,755.20721 201.85535,619.11796 l 6.308,-8.37167 z M 848,983.21967 c 52.8287,-32.63143 -112.97682,-21.37161 -44.54447,1.85994 14.87784,0.28046 29.68418,-1.53088 44.54447,-1.85994 z m 88.45539,-47.87051 c 33.88969,14.29516 75.12501,-37.18102 16.6033,-21.937 -12.30476,1.77586 -59.40194,26.81798 -16.6033,21.937 z M 889.03024,600.94815 c 68.31523,-16.58946 19.85577,-95.06866 30.0133,-141.72477 25.9535,-38.71886 -20.1631,-117.88891 -46.14891,-119.2868 -19.26093,48.60025 -43.20108,128.40336 -112.33709,100.0904 -41.02214,-22.14887 -54.54547,18.33249 -15.96596,37.41849 25.23842,43.37312 92.43369,76.37294 114.03755,25.27015 -15.25502,32.40152 -33.7966,116.58339 30.40111,98.23253 z M 562.00182,541.50326 c 24.02743,-67.67509 -108.32116,-23.51842 -143.83016,-34.77072 -81.49438,71.84502 98.81077,88.74232 143.83016,34.77072 z m -20.22558,-42.91077 c -25.03373,-28.17479 -78.70799,-14.25387 -108.14598,-16.34721 -11.20526,33.5291 95.25903,16.76682 108.14598,16.34721 z m 136.55483,-65.24317 c 52.50683,-28.06783 -33.77223,-35.23469 -10.65287,2.68521 3.89856,0.17291 7.32628,-0.6362 10.65287,-2.68521 z m 70.67052,-42.59503 c 15.12868,-46.78456 -92.16926,-36.45396 -35.02443,-1.81957 8.30248,10.2299 30.70077,22.5832 35.02443,1.81957 z m 90.99754,-34.75308 c 76.09677,-6.05259 -33.40727,-95.86787 -0.003,-16.98188 -0.32912,5.72554 -5.41579,12.0556 0.003,16.98188 z M 0,0 H 378.71747 C 346.62626,71.931495 363.89529,170.02488 291.40358,220.08729 201.70996,283.11586 63.947639,235.59445 26.630725,133.75155 7.4524395,92.031284 -0.57828127,45.746145 0,0 Z M 436.005,167.66667 C 481.97565,127.93523 418.41883,58.760479 393.37399,92.366586 381.00473,43.471872 437.97904,89.845022 462.75906,65.567468 493.40669,45.676689 514.26292,97.05302 474.66966,76.23331 423.49967,89.151542 519.42833,185.26238 436.005,167.66667 Z" id="path1030" inkscape:connector-curvature="0" sodipodi:nodetypes="ccccccccccccccccccccccccccccccccccccccccccccccccccc" /> <path style="fill:#e48b44;stroke-width:1.33333337" d="M 0,680.64127 V 273.28253 c 198.14493,107.94373 -54.25786,701.617 12.904306,807.28007 305.414224,-87.64093 798.814014,48.1729 1054.852894,-76.1989 4.6834,-90.36755 -55.0226,-177.70906 -33.0989,-274.68082 -28.7681,-57.43889 38.9382,-221.69772 55.7765,-88.95304 -8.6658,148.50044 1.1599,298.12936 -2.4349,447.27016 H 0 Z m 477.33333,-69.97839 c -52.64922,-1.99476 -179.08203,10.92626 -166.08314,-35.68471 45.48245,58.67003 279.22933,9.02495 115.48557,8.11804 -126.00243,-41.80427 142.20543,33.18145 129.42293,-73.42827 -44.74293,-14.23805 -103.22935,11.47339 -151.88839,-6.10238 43.87607,2.68449 187.62177,-20.34489 72.74398,-25.35741 -47.1609,-9.34306 136.22045,-21.06115 132.24319,-17.77722 54.18123,-21.99114 79.23859,-132.26921 134.05074,-34.3355 38.87152,69.45587 151.82943,-86.93652 77.39877,15.9529 -40.71429,4.52477 -149.87985,-28.55456 -72.95332,40.01895 41.14512,58.70049 154.43739,57.09433 117.96295,17.14883 -33.98047,77.7789 -84.28864,43.75494 -112.39551,-9.37626 -78.7126,-14.61714 -138.50059,-50.47784 -185.17132,34.44647 -46.26487,19.92183 -28.84583,102.00399 -90.81645,86.37656 z M 585.66481,493.04159 c -18.7605,-41.70077 -50.90364,34.26916 0,0 z m 90.75618,-58.54154 c 85.07453,-64.42519 -53.01056,-20.13555 0,0 z m 65.7195,-27.21669 c 0.43272,-41.47032 47.33607,-4.28312 0,0 z M 845.33333,370 c -12.63849,-57.0338 73.00794,-16.85751 0,0 z m -162.4,-4.93333 c -2.74554,-41.09859 38.68689,0.91285 0,0 z m 349.35577,-7.1476 C 1031.528,286.55728 1061.2442,221.07181 967.80295,231.97925 962.55139,154.17842 928.88316,109.44186 848.1171,128.0204 748.63479,80.618138 660.90183,137.21517 569.81441,166.90977 502.75311,166.01372 544.22685,-6.3157774 599.25113,0 H 1088 v 349.12145 c -17.9707,4.99486 -36.578,15.43038 -55.7109,8.79762 z M 883.02175,347.00216 c 8.2619,-30.94624 -92.32047,-82.63585 9.46795,-68.53665 40.58913,5.29956 19.35229,70.55745 -9.46795,68.53665 z m -52.00094,-6.06799 c 10.03351,-19.06294 10.16753,21.81486 0,0 z M 243.05233,309 C 244.01336,226.00134 214.08421,76.535775 100.83131,144.58035 33.87708,151.52561 -8.202526,312.0819 -5.8173769,177.74061 9.6428008,109.49051 -37.39034,-30.612788 81.72008,0 H 378.71747 C 327.13142,55.939299 397.50928,212.93495 313.17959,204.83371 271.34324,222.58482 290.33279,299.48326 243.05233,309 Z" id="path1028" inkscape:connector-curvature="0" sodipodi:nodetypes="ccccccccccccccccccccccccccccccccccccccccccccccccccccc" /> <path style="fill:#73255f;stroke-width:1.33333337" d="M 0,680.64127 C 0,544.85502 0,409.06878 0,273.28253 c 56.529045,-19.91361 115.88353,9.48161 165.263,40.6811 13.45898,35.80951 24.42401,74.12969 41.92365,106.79717 -27.84932,49.23839 -31.33305,108.62089 -63.41036,156.31358 -25.69148,23.15456 -55.428342,96.29057 -7.07499,102.84098 25.69032,-23.98244 85.59383,-28.71775 119.75239,7.70758 40.48499,21.17625 85.80572,95.08083 132.37927,48.04256 50.73086,-31.30345 112.5432,-16.24499 168.16704,-12.65363 12.84652,101.65367 14.18392,205.96693 36.58281,306.16303 10.877,56.8166 78.40002,65.0217 125.32587,55.1139 103.34549,-13.8404 200.12241,-67.4058 305.73552,-63.9208 33.6184,-8.9751 88.0469,62.8788 47.9692,67.632 C 715.07557,1088 357.53779,1088 0,1088 0,952.21376 0,816.42751 0,680.64127 Z m 107.21734,277.09714 c 16.7722,-52.11349 67.60294,-94.29263 74.42944,-146.07765 -51.16641,-60.06282 -75.28819,57.22987 -99.686433,91.35046 -21.132138,41.73666 -47.81489,111.25638 4.840886,138.68938 20.936487,-20.4473 16.610647,-56.68437 20.416107,-83.96219 z m 215.2199,32.11283 c 44.65875,-6.57392 -48.7876,-15.50807 -27.1329,-51.40623 -5.58821,-46.70246 46.60865,-95.66396 33.44166,-133.76898 -45.51117,-14.30472 -46.6721,9.353 -46.55853,41.64433 -6.77195,43.7122 -64.99305,124.83805 3.16913,142.83775 12.24967,2.10294 24.74668,1.6102 37.08064,0.69313 z M 243.05233,309 C 227.22371,242.83838 250.4763,172.4216 243.1297,104.58596 220.16272,63.553372 154.10294,71.190905 111.24018,62.717932 73.5766,51.974543 17.638428,86.187956 0,91.286593 0,60.857729 0,30.428864 0,0 c 126.23916,0 252.47831,0 378.71747,0 -16.21292,40.180685 -19.12348,74.632135 -28.38514,116.50253 17.0964,40.19068 13.61404,127.97624 -47.81039,83.05106 C 294.58319,229.47953 283.49737,303.14765 243.05233,309 Z m 283.281,-148.58577 c 17.56835,-7.36731 15.93193,-49.6277 21.7428,-74.146309 4.49854,-16.921359 -31.45735,-21.278812 7.70684,-16.724268 20.09815,4.648572 52.07447,12.075077 58.93365,-1.67739 -5.0709,21.839864 -6.85893,51.598477 -15.4626,15.245422 -31.33675,-24.005357 -53.01259,19.237195 -32.87033,36.298945 16.90441,-23.210767 4.14273,36.23283 -4.13098,7.49303 -21.66828,8.72625 1.14476,47.98774 -35.91938,33.51057 z" id="path1026" inkscape:connector-curvature="0" /> <path style="fill:#2d3322;stroke-width:1.33333337" d="m 0.04213499,882.33333 0.042135,-205.66666 C 20.896358,716.21406 1.0161811,766.61426 27.880482,806.59696 c 5.372148,52.21546 62.74289,81.11319 25.304815,131.93163 -11.328078,39.31232 -56.6771472,136.64521 24.139202,110.61021 51.336681,2.1026 99.141041,8.2583 149.862741,-6.3132 147.25932,-15.6963 297.04321,-13.2433 443.50182,8.9009 34.95462,0.1184 46.15641,25.4511 3.20138,24.8368 C 495.50135,1094.1174 315.90512,1086.1737 136.9073,1088 H 0 Z M 954.74235,1018.4949 c 36.11865,-0.2 95.24345,28.232 117.27025,-13.5441 19.5172,-32.16423 -11.1584,-64.06287 -17.2954,-92.85624 14.3846,-14.14145 43.1047,-5.63805 33.2828,17.72405 V 1088 c -85.368,-1.7222 -171.17471,4.2702 -256.15043,-4.9103 -56.18722,1.2107 -38.31402,-50.1311 6.70019,-51.1739 37.74511,-10.4178 77.15341,-13.676 116.19259,-13.4209 z M 665.05004,960.07309 c -31.50598,-56.2303 -62.68746,-116.38302 -69.63968,-181.35036 6.66925,-2.58414 128.9773,149.28706 126.19049,196.86381 -9.44501,33.08616 -44.13131,-2.57547 -56.55081,-15.51345 z m 154.98904,-5.20353 c 42.52154,-61.62561 -13.82945,-135.41473 4.11891,-198.29934 38.58947,-45.182 -12.69824,-152.43016 61.13593,-157.66338 85.56842,-3.79834 20.32953,77.55917 33.77366,124.2443 14.68193,61.03315 67.01794,106.92552 72.93242,171.34006 -27.5264,40.38174 -66.29767,8.23236 -63.73909,-31.26594 -14.49641,-36.87317 -69.94309,-111.95853 -62.45562,-25.69648 -6.60428,41.30843 28.16407,104.66047 -3.02842,131.21825 -15.06375,0.52388 -31.16732,-3.97588 -42.73779,-13.87747 z M 138.14601,776 c 9.97748,-42.76662 1.8113,-153.3925 72.75696,-104.33824 35.32516,30.63883 91.19443,20.58366 123.76888,28.28784 16.47642,35.98274 16.18312,77.67628 1.56737,114.12411 -38.14826,11.78786 -71.47441,1.37286 -75.92698,-38.98596 -20.38453,46.8364 -88.87671,60.27229 -118.27225,12.62455 l -2.49122,-5.70973 z M 341.33333,485.69481 c 0.69648,-25.57977 34.85173,-34.94859 9.1217,-15.98713 -0.32824,6.58355 -2.90421,20.61342 -9.1217,15.98713 z M 670,480.79809 c -51.6197,-3.33965 -28.18882,-58.71118 6.69083,-44.62376 29.50157,-21.25301 33.36441,-50.93606 -2.08666,-34.87288 -10.17854,-17.42615 34.97343,-37.18276 30.95628,-7.09299 18.77165,16.28168 29.45669,32.14415 8.67119,41.33012 -1.25101,17.98433 19.91921,39.70948 -10.45272,47.12809 C 692.51247,482.45162 681.10615,483.1443 670,480.79809 Z M 369.90132,448.19084 c -13.16957,-14.07888 14.96567,-47.66275 -10.11311,-36.89407 33.77202,-31.74178 -60.88466,-67.7545 -29.34364,-18.61808 -36.56666,-7.30811 -4.61967,71.13871 -36.29185,43.28041 -29.303,-48.9908 16.23593,-92.36392 65.24457,-62.84529 23.51912,22.80062 13.33151,66.22442 9.82802,76.38428 z m -43.56799,-34.44328 c -7.88162,-21.70944 28.13556,-1.12967 0,0 z m 415.8889,-6.63645 c 2.87145,-29.3515 40.75936,-21.96418 7.55482,0.12328 l -4.37452,0.73384 -3.1803,-0.85718 z m 103.34661,-37.11455 c -36.46293,-6.75229 38.00111,-32.21024 23.76449,-20.50285 -0.0486,7.13403 -17.7284,26.86518 -23.76449,20.50285 z m -162.63551,-4.92989 c -1.22782,-33.96189 37.9219,-12.69073 0,0 z m 202.03635,-17.87476 c 22.07969,-22.19159 0.87554,-30.40987 -12.30001,-23.17412 7.18801,-45.76232 -58.11656,-7.54452 -27.45667,-44.62223 41.12838,-27.18915 90.04482,22.46687 54.88055,58.93777 -3.91016,5.85083 -6.93036,12.77958 -15.12387,8.85858 z" id="path1024" inkscape:connector-curvature="0" sodipodi:nodetypes="cccccccccccccccccccccccccccccccccccccccccccccccccccccccccccccccccccccccccc" /> </g>
</svg>
